public/images/icon-racket--leaf.svg

<svg width="27" height="27" viewBox="0 0 27 27" fill="none" xmlns="http://www.w3.org/2000/svg">
<path d="M18.8438 0C20.7188 0.09375 22.5469 0.796875 23.9531 2.20312L24.2344 2.48438C25.5 3.9375 26.1094 5.76562 26.1094 7.64062V8.10938C25.9688 10.5 24.8906 12.9375 22.9688 14.8594C20.4375 17.4375 16.7812 18.5625 13.6875 17.7656C12.3281 17.3906 10.7344 17.4844 9.75 18.5156L7.96875 20.25L8.71875 21L3.60938 26.1094L0 22.5L5.10938 17.3906L5.85938 18.1406L7.64062 16.3594C8.625 15.375 8.71875 13.7812 8.39062 12.4219C8.25 11.8594 8.15625 11.2969 8.10938 10.7344V10.3594C8.10938 7.82812 9.23438 5.20312 11.25 3.14062C13.3125 1.125 15.9375 0 18.4688 0H18.8438ZM18.4688 3C16.7812 3 14.9062 3.75 13.3594 5.25C11.8594 6.79688 11.1094 8.67188 11.1094 10.3594L11.1562 10.8281C11.25 11.9531 11.6719 12.9375 12.4219 13.6875C14.2969 15.6094 18.0938 15.5156 20.8594 12.75C22.2656 11.2969 23.0156 9.5625 23.1094 7.96875V7.64062C23.1094 6.32812 22.6875 5.15625 21.8438 4.3125C21.0938 3.5625 20.1094 3.14062 18.9844 3H18.4688Z" fill="#91C15D"/>
</svg>

<svg width="27" height="27" viewBox="0 0 27 27" fill="none" xmlns="http://www.w3.org/2000/svg"><path d="M18.844 0c1.875.094 3.703.797 5.11 2.203l.28.281C25.5 3.938 26.11 5.766 26.11 7.641v.468c-.14 2.391-1.218 4.829-3.14 6.75-2.532 2.579-6.188 3.704-9.282 2.907-1.359-.375-2.953-.282-3.937.75L7.969 20.25l.75.75-5.11 5.11L0 22.5l5.11-5.11.75.75 1.78-1.78c.985-.985 1.079-2.579.75-3.938a10.567 10.567 0 0 1-.28-1.688v-.375c0-2.53 1.124-5.156 3.14-7.218C13.313 1.125 15.938 0 18.469 0h.375Zm-.375 3c-1.688 0-3.563.75-5.11 2.25-1.5 1.547-2.25 3.422-2.25 5.11l.047.468c.094 1.125.516 2.11 1.266 2.86 1.875 1.921 5.672 1.828 8.437-.938 1.407-1.453 2.157-3.188 2.25-4.781V7.64c0-1.313-.422-2.485-1.265-3.329-.75-.75-1.735-1.171-2.86-1.312h-.515Z" fill="#91C15D"/></svg>
